src/assets/icons/instagram-logo.svg

<svg viewBox="0 0 15 15" fill="none" xmlns="http://www.w3.org/2000/svg">
<path fill-rule="evenodd" clip-rule="evenodd" d="M4.5 0H10.5C12.9853 0 15 2.01472 15 4.5V10.5C15 12.9853 12.9853 15 10.5 15H4.5C2.01472 15 0 12.9853 0 10.5V4.5C0 2.01472 2.01472 0 4.5 0ZM4.5 1.5C2.84315 1.5 1.5 2.84315 1.5 4.5V10.5C1.5 12.1569 2.84315 13.5 4.5 13.5H10.5C12.1569 13.5 13.5 12.1569 13.5 10.5V4.5C13.5 2.84315 12.1569 1.5 10.5 1.5H4.5ZM7.5 11.25C5.42893 11.25 3.75 9.57107 3.75 7.5C3.75 5.42893 5.42893 3.75 7.5 3.75C9.57107 3.75 11.25 5.42893 11.25 7.5C11.25 9.57107 9.57107 11.25 7.5 11.25ZM7.5 9.75C8.74264 9.75 9.75 8.74264 9.75 7.5C9.75 6.25736 8.74264 5.25 7.5 5.25C6.25736 5.25 5.25 6.25736 5.25 7.5C5.25 8.74264 6.25736 9.75 7.5 9.75ZM11.25 4.5C10.8358 4.5 10.5 4.16421 10.5 3.75C10.5 3.33579 10.8358 3 11.25 3C11.6642 3 12 3.33579 12 3.75C12 4.16421 11.6642 4.5 11.25 4.5Z" fill="url(#paint0_radial_29056_41644)"/>
<defs>
<radialGradient id="paint0_radial_29056_41644" cx="0" cy="0" r="1" gradientUnits="userSpaceOnUse" gradientTransform="translate(0.27205 13.6245) rotate(-3.00009) scale(21.6906 18.4368)">
<stop stop-color="#FED576"/>
<stop offset="0.2634" stop-color="#F47133"/>
<stop offset="0.6091" stop-color="#BC3081"/>
<stop offset="1" stop-color="#4C63D2"/>
</radialGradient>
</defs>
</svg>

<svg xmlns="http://www.w3.org/2000/svg" fill="none" viewBox="0 0 15 15"><path fill="url(#a)" fill-rule="evenodd" d="M4.5 0h6A4.5 4.5 0 0 1 15 4.5v6a4.5 4.5 0 0 1-4.5 4.5h-6A4.5 4.5 0 0 1 0 10.5v-6A4.5 4.5 0 0 1 4.5 0Zm0 1.5a3 3 0 0 0-3 3v6a3 3 0 0 0 3 3h6a3 3 0 0 0 3-3v-6a3 3 0 0 0-3-3h-6Zm3 9.75a3.75 3.75 0 1 1 0-7.5 3.75 3.75 0 0 1 0 7.5Zm0-1.5a2.25 2.25 0 1 0 0-4.5 2.25 2.25 0 0 0 0 4.5Zm3.75-5.25a.75.75 0 1 1 0-1.5.75.75 0 0 1 0 1.5Z" clip-rule="evenodd"/><defs><radialGradient id="a" cx="0" cy="0" r="1" gradientTransform="matrix(21.66087 -1.1352 .9649 18.41153 .272 13.624)" gradientUnits="userSpaceOnUse"><stop stop-color="#FED576"/><stop offset=".263" stop-color="#F47133"/><stop offset=".609" stop-color="#BC3081"/><stop offset="1" stop-color="#4C63D2"/></radialGradient></defs></svg>
